!!!!SEGMENT: Distler_Jahrkreis_24_Ein-neu-Gebot-gebe-ich-euch_3v.krn
!!!COM: Distler, Hugo
!!!CDT: 1908-1942
!!!OPR@@DE: Der Jahrkreis
!!!OPR@EN: The Year Cycle
!!!OTL@@DE: Ein neu Gebot gebe ich euch
!!!OTL@EN: I give you a new commandment
!!!OPS: 5
!!!ONM: 24
!!!RNB: Single-staff introduction not encoded.
**kern	**text	**kern	**text	**kern	**text
*part3	*part3	*part2	*part2	*part1	*part1
*staff3	*staff3	*staff2	*staff2	*staff1	*staff1
*Ialto	*	*Isoprn	*	*Isoprn	*
*clefG2	*	*clefG2	*	*clefG2	*
*k[]	*	*k[]	*	*k[]	*
*MM120	*	*MM120	*	*MM120	*
*M4/4	*	*M4/4	*	*M4/4	*
=1	=1	=1	=1	=1	=1
=2	=2	=2	=2	=2	=2
1r	.	4r	.	2.f,	be.
.	.	4cc	Die	.	.
.	.	4a	Lie-	.	.
.	.	[4a	be	4cc	Die
=3	=3	=3	=3	=3	=3
1r	.	4a],	.	4a	Lie-
.	.	4cc	die	2a,	be,
.	.	4a	Lie-	.	.
.	.	[4a	be	4cc	die
=4	=4	=4	=4	=4	=4
1r	.	4a],	.	4a	Lie-
.	.	4cc	die	4.a	be
.	.	4a	Lie-	.	.
.	.	.	.	8a	ist
.	.	[4a	be	4g	lang-
=5	=5	=5	=5	=5	=5
1r	.	8a]	.	4d	mue-
.	.	8a	ist	.	.
.	.	4g	lang-	4.a,	tig
.	.	4d	mue-	.	.
.	.	.	.	8a	und
.	.	[4a	tig	4a	ist
!!LO:LB:g=original
=6	=6	=6	=6	=6	=6
2r	.	8a]	.	2b-	freund-
.	.	8a	und	.	.
.	.	2g	freund-	.	.
4r	.	.	.	2a	lich.
4d	Die	4f#	lich.	.	.
=7	=7	=7	=7	=7	=7
2d	Lie-	2r	.	2r	.
4d	be	8r	.	8r	.
.	.	8fn	Die	8a	Die
4d	ist	8f	Lie-	8a	Lie-
.	.	8f	be	8a	be
=8	=8	=8	=8	=8	=8
2.d	lang-	4.g	ei-	4.cc	ei-
.	.	8f	fert	8cc	fert
.	.	4e,	nicht,	4a,	nicht,
[4d	mue-	4f	treibt	8a	treibt
.	.	.	.	8a	nicht
=9	=9	=9	=9	=9	=9
4d]	.	4g	nicht	2cc	Mut-
8d	tig	2a	Mut-	.	.
8d	und	.	.	.	.
2d	freund-	.	.	4bn	wil-
.	.	4a	wil-	[4b	len
!!LO:LB:g=original
=10	=10	=10	=10	=10	=10
*M6/4	*	*M6/4	*	*M6/4	*
8e,	lich,	8g,	len,	8b],	.
8e	sie	8g	sie	8b	sie
(4d	stel-	(4a	stel-	(4dd	stel-
4.c	.	4.b	.	4.ee	.
8d	.	8a	.	8dd	.
4e	.	4g	.	4b	.
4d)	.	4a)	.	4dd)	.
=11	=11	=11	=11	=11	=11
*M5/4	*	*M5/4	*	*M5/4	*
8d	let	8a	let	8dd	let
4d	sich	4a	sich	4dd	sich
8d	nicht	8a	nicht	8dd	nicht
8c	un-	8b	un-	8ee	un-
8c	ge-	8b	ge-	8ee	ge-
4d	baer-	4a	baer-	4dd	baer-
4d	dig.	4a	dig.	4dd	dig.
=12	=12	=12	=12	=12	=12
*M4/4	*	*M4/4	*	*M4/4	*
4r	.	4r	.	4r	.
2d	Sie	4a	Sie	4dd	Sie
.	.	4a	su-	2b-	su-
4e-	su-	4g	chet	.	.
=13	=13	=13	=13	=13	=13
*M3/4	*	*M3/4	*	*M3/4	*
4f	chet	4a	nicht	4a	chet
4g	nicht	4b	das	4dd	nicht
4g	das	([4a	Ih-	4dd	das
!!LO:LB:g=original
=14	=14	=14	=14	=14	=14
*M4/4	*	*M4/4	*	*M4/4	*
2d	Ih-	4a]	.	2bn	Ih-
.	.	4g)	.	.	.
4a,	re.	4a,	re.	4a,	re.
8a	Sie	8a	Sie	8a	Sie
8a	ver-	8a	ver-	8a	ver-
=15	=15	=15	=15	=15	=15
*M3/4	*	*M3/4	*	*M3/4	*
4a	traegt	4b-	traegt	4dd	traegt
8d	al-	8a	al-	8a	al-
4d,	les.	4a,	les.	4a,	les.
8d	Sie	8a	Sie	8a	Sie
=16	=16	=16	=16	=16	=16
*M4/4	*	*M4/4	*	*M4/4	*
4a	glau-	4b-	glau-	4dd	glau-
4a	bet	4b-	bet	4dd	bet
4d	al-	4a	al-	4a	al-
8d,	les.	8a,	les.	8a,	les.
8d	Sie	8a	Sie	8a	Sie
=17	=17	=17	=17	=17	=17
4a	hof-	4b-	hof-	4dd	hof-
4a	fet	4b-	fet	4dd	fet
4a	al-	4b-	al-	4dd	al-
[4d	les,	[4a	les,	[4a	les,
=18	=18	=18	=18	=18	=18
*M5/4	*	*M5/4	*	*M5/4	*
8d],	.	8a],	.	8a],	.
8d	sie	8a	sie	8a	sie
2.d	dul-	(2g	dul-	(2cc	dul-
.	.	4f#)	.	4b)	.
4d	det	4e	det	4g	det
!!LO:LB:g=original
=19	=19	=19	=19	=19	=19
*M4/4	*	*M4/4	*	*M4/4	*
1A	al-	1f#	al-	1a	al-
=20	=20	=20	=20	=20	=20
1e	les.	1g#	les.	1b	les.
=21||	=21	=21||	=21	=21||	=21
*met(c|)	*	*met(c|)	*	*met(c|)	*
1r	.	4e	Die	1r	.
.	.	(2gn	Lie-	.	.
.	.	[4a	.	.	.
=22	=22	=22	=22	=22	=22
1r	.	8aL]	.	1r	.
.	.	8gJ	.	.	.
.	.	4e	.	.	.
.	.	2fn)	.	.	.
=23	=23	=23	=23	=23	=23
1r	.	2e	be	4a	Die
.	.	.	.	(2cc	Lie-
.	.	4e	hoe-	.	.
.	.	4a	ret	[4dd	.
=24	=24	=24	=24	=24	=24
4d	Die	2f	nim-	8ddL]	.
.	.	.	.	8ccJ	.
(2f	Lie-	.	.	4a	.
.	.	2e	mer	2b-)	.
[4g	.	.	.	.	.
=25	=25	=25	=25	=25	=25
8gL]	Die	2d,	auf,	2a	be
8fJ	Lie-	.	.	.	.
4d	.	.	.	.	.
2e)	.	[2g	nim-	4g	hoe-
.	.	.	.	4cc	ret
!!LO:LB:g=original
=26	=26	=26	=26	=26	=26
2d,	be,	4g]	.	2a	nim-
.	.	4f#	mer	.	.
4B	die	2e,	auf,	2g	mer
([4d	Lie-	.	.	.	.
=27	=27	=27	=27	=27	=27
4d]	.	2a	hoe-	2f#,	auf,
4.e	.	.	.	.	.
.	.	2g	ret	([2b	nim-
8d	.	.	.	.	.
4B	.	.	.	.	.
=28	=28	=28	=28	=28	=28
2c)	.	4f#	nim-	4b]	.
.	.	4f#	mer	2a)	.
2B	be	2e,	auf,	.	.
.	.	.	.	4g#	mer
=29	=29	=29	=29	=29	=29
4A	hoe-	4e	die	2a	auf,
4d	ret	(2g	Lie-	.	.
2c	nim-	.	.	2r	.
.	.	[4a	.	.	.
=30	=30	=30	=30	=30	=30
4d	mer,	8aL]	.	4a	die
.	.	8gJ	.	.	.
4r	.	4e	.	(2cc	Lie-
4A	hoe-	[2f	.	.	.
4d	ret	.	.	[4dd	.
!!LO:LB:g=original
=31	=31	=31	=31	=31	=31
2c	nim-	4f]	.	8ddL]	.
.	.	.	.	8ccJ	.
.	.	4.e	.	4a	.
2B-	mer	.	.	2b-)	.
.	.	8f	.	.	.
.	.	4g)	.	.	.
=32	=32	=32	=32	=32	=32
2d,	auf,	2f#,	be,	2a,	be,
4d	die	4d	die	4dd	die
[4c	Lie-	[4g	Lie-	[4ee-	Lie-
=33	=33	=33	=33	=33	=33
4c]	.	4g]	.	4ee-]	.
4g	be	4g	be	4dd	be
4g	hoe-	4a	hoe-	4cc	hoe-
4g	ret	4b-	ret	4b-	ret
=34	=34	=34	=34	=34	=34
(2f	nim-	(2a	nim-	(2cc	nim-
4d	.	4b-	.	4dd	.
[4f	.	[4a	.	[4cc	.
=35	=35	=35	=35	=35	=35
4f]	.	4a]	.	4cc]	.
4d	.	4b-	.	4dd	.
4f)	.	4a)	.	4cc)	.
4d	mer	4g	mer	4b-	mer
=36	=36	=36	=36	=36	=36
1f	auf.	1a	auf.	1cc	auf.
==	==	==	==	==	==
*-	*-	*-	*-	*-	*-
!!!YOR: Bärenreiter-Ausgabe 676
!!!YOY: 1933
!!!EFL: 24/52
!!!URL-github: https://github.com/LucasHofmann/distler/blob/main/Jahrkreis/Distler_Jahrkreis_24_Ein-neu-Gebot-gebe-ich-euch_3v.krn
!!!URL-pdf: https://imslp.eu/files/imglnks/euimg/7/7d/IMSLP834545-PMLP518834-5-jahrkreis-EA--original-paper-600dpi.pdf#page=46 First edition, Kassel: Bärenreiter, 1933. Plate BA 676.
!!!URL-imslp: https://imslp.org/wiki/Der_Jahrkreis,_Op.5_(Distler,_Hugo)#IMSLP834545
!!!system-decoration: [(s1,s2,s3)]
!!!ENC: Lucas Hofmann
!!!END: 2024/01/08
!!!title: @{OPR@@DE}, Op. @{OPS}, Nr. @{ONM}. <i>@{OTL@@DE}</i>
